svgs/sharp-solid/cup-straw.svg

<svg xmlns="http://www.w3.org/2000/svg" viewBox="0 0 384 512"><!--! Font Awesome Pro 6.4.0 by @fontawesome - https://fontawesome.com License - https://fontawesome.com/license (Commercial License) Copyright 2023 Fonticons, Inc. --><path d="M224 0h56 24V48H280 243l-18.8 80H352h32v64H352 32 0V128H32 174.9L200.6 18.5 205 0h19zM64 512L40 224H344L320 512H64z"/></svg>

<svg xmlns="http://www.w3.org/2000/svg" viewBox="0 0 384 512"><!--! Font Awesome Pro 6.6.0 by @fontawesome - https://fontawesome.com License - https://fontawesome.com/license (Commercial License) Copyright 2024 Fonticons, Inc. --><path d="M224 0l56 0 24 0 0 48-24 0-37 0-18.8 80L352 128l32 0 0 64-32 0L32 192 0 192l0-64 32 0 142.9 0L200.6 18.5 205 0l19 0zM64 512L40 224l304 0L320 512 64 512z"/></svg>
